web/packages/design/src/ResourceIcon/assets/airtable.svg

<svg width="72" height="72" viewBox="0 0 72 72" fill="none" xmlns="http://www.w3.org/2000/svg">
<path d="M32.1505 6.6452L5.307 17.7525C3.81425 18.3703 3.82971 20.491 5.33183 21.0864L32.2872 31.7758C34.6556 32.7151 37.2931 32.7151 39.6615 31.7758L66.6173 21.086C68.119 20.491 68.1352 18.3707 66.6417 17.7529L39.799 6.64479C37.3501 5.63142 34.599 5.63142 32.1501 6.64479" fill="#FCB400"/>
<path d="M38.3662 37.6123V64.3162C38.3662 65.586 39.6469 66.4561 40.8275 65.988L70.8641 54.3293C71.1991 54.1965 71.4864 53.9661 71.6889 53.668C71.8914 53.3699 71.9996 53.0178 71.9995 52.6575V25.954C71.9995 24.6838 70.7188 23.8141 69.5382 24.2822L39.5016 35.9409C39.1667 36.0738 38.8794 36.3042 38.677 36.6023C38.4745 36.9004 38.3662 37.252 38.3662 37.6123Z" fill="#18BFFF"/>
<path d="M31.3519 38.9901L22.4377 43.2942L21.5326 43.7317L2.71528 52.748C1.52287 53.3235 0 52.4542 0 51.1291V26.0657C0 25.5863 0.245808 25.1724 0.57545 24.8611C0.710685 24.7264 0.864108 24.6114 1.03125 24.5192C1.48054 24.2494 2.12192 24.1774 2.66726 24.3931L31.2021 35.6994C32.6525 36.2749 32.7665 38.3068 31.3519 38.9901Z" fill="#F82B60"/>
<path d="M31.3526 38.9901L22.4384 43.2942L0.576172 24.8607C0.711433 24.7262 0.864855 24.6112 1.03197 24.5192C1.48126 24.2494 2.12264 24.1774 2.66798 24.3931L31.2028 35.6994C32.6532 36.2749 32.7672 38.3068 31.3526 38.9901Z" fill="black" fill-opacity="0.25"/>
</svg>

<svg xmlns="http://www.w3.org/2000/svg" width="72" height="72" fill="none" viewBox="0 0 72 72"><path fill="#fcb400" d="M32.15 6.645 5.308 17.753c-1.493.617-1.477 2.738.025 3.333l26.955 10.69c2.369.94 5.006.94 7.374 0l26.956-10.69c1.502-.595 1.518-2.715.025-3.333L39.799 6.645a10 10 0 0 0-7.649 0"/><path fill="#18bfff" d="M38.366 37.612v26.704c0 1.27 1.28 2.14 2.462 1.672l30.036-11.659A1.8 1.8 0 0 0 72 52.657V25.955c0-1.27-1.28-2.14-2.46-1.672L39.501 35.941a1.8 1.8 0 0 0-1.136 1.671"/><path fill="#f82b60" d="m31.352 38.99-8.914 4.304-.905.438-18.818 9.016C1.523 53.324 0 52.454 0 51.129V26.066c0-.48.246-.894.575-1.205q.206-.203.456-.342c.45-.27 1.09-.342 1.636-.126L31.202 35.7c1.45.576 1.564 2.608.15 3.291"/><path fill="#000" fill-opacity=".25" d="m31.353 38.99-8.915 4.304L.576 24.861q.204-.203.456-.342c.45-.27 1.09-.342 1.636-.126L31.203 35.7c1.45.576 1.564 2.608.15 3.291"/></svg>
